X: 34952
T: Rocky Road To Dublin, The
R: slip jig
M: 9/8
K: Adorian
|:efe d2 B A2 c|e2 A A2 A Bcd|
efe d2 B A2 c|B2 G G2 A Bcd:|
|:e2 a a2 f g2 g|e2 a a2 A Bcd|
[1 e2 a a2 f g2 e|d2 B G2 A Bcd:|
[2 efg agf gfe|dBG G2 A Bcd||

